pix_core/f/database.svg

<svg fill="none" preserveAspectRatio="xMinYMid meet" viewBox="0 0 24 24" xmlns="http://www.w3.org/2000/svg"><g clip-rule="evenodd" fill="#fff" fill-rule="evenodd"><path d="m15.5 11.3645c0-.0825-.02-.1604-.0554-.229-.1553-.512-.6152-.8904-1.0997-1.1326-.6259-.31301-1.4557-.49216-2.3449-.49216s-1.719.17915-2.34492.49216c-.48443.2422-.9444.6206-1.09969 1.1326-.0354.0686-.05539.1465-.05539.229v5.3972c0 .7056.55903 1.2098 1.15508 1.5079.62592.3129 1.45572.4921 2.34492.4921s1.719-.1792 2.3449-.4921c.5961-.2981 1.1551-.8023 1.1551-1.5079zm-5.3977-.4672c-.48975.2449-.6023.4906-.6023.6134s.11255.3686.6023.6135c.4598.2299 1.1301.3866 1.8977.3866s1.4379-.1567 1.8977-.3866c.4898-.2449.6023-.4907.6023-.6135s-.1125-.3685-.6023-.6134c-.4598-.2299-1.1301-.3866-1.8977-.3866s-1.4379.1567-1.8977.3866zm4.3977 2.0385c-.0512.0292-.103.0568-.1551.0828-.6259.313-1.4557.4922-2.3449.4922s-1.719-.1792-2.34492-.4922c-.0521-.026-.1039-.0536-.15508-.0828v1.6263c.0082.0108.0246.029.05534.0546.08929.0742.24847.1634.48916.248.4768.1676 1.1682.2806 1.9555.2806.7874 0 1.4787-.113 1.9555-.2806.2407-.0846.3999-.1738.4892-.248.0307-.0256.0471-.0438.0553-.0546zm0 2.7904c-.0693.0292-.1404.0565-.2128.0819-.609.2141-1.4177.3372-2.2872.3372s-1.6782-.1231-2.28713-.3372c-.07243-.0254-.14358-.0527-.21287-.0819v1.0355c0 .1228.11255.3686.6023.6134.4598.23 1.1301.3866 1.8977.3866s1.4379-.1566 1.8977-.3866c.4898-.2448.6023-.4906.6023-.6134z"/><path d="m19.5 8.82843c0-.66304-.2634-1.29893-.7322-1.76777l-3.8285-3.82843c-.4688-.46884-1.1047-.73223-1.7677-.73223h-6.1716c-1.38071 0-2.5 1.11929-2.5 2.5v14c0 1.3807 1.11929 2.5 2.5 2.5h10c1.3807 0 2.5-1.1193 2.5-2.5zm-12.5-5.32843c-.82843 0-1.5.67157-1.5 1.5v14c0 .8284.67157 1.5 1.5 1.5h10c.8284 0 1.5-.6716 1.5-1.5v-10c0-.27614-.2239-.5-.5-.5h-3c-.8284 0-1.5-.67157-1.5-1.5v-3c0-.27614-.2239-.5-.5-.5zm7.5.70711v2.79289c0 .27614.2239.5.5.5h2.7929z"/></g></svg>

<svg viewBox="0 0 24 24" fill="none" xmlns="http://www.w3.org/2000/svg" preserveAspectRatio="xMinYMid meet">
<path fill-rule="evenodd" clip-rule="evenodd" d="M15.5 11.3645C15.5 11.282 15.48 11.2041 15.4446 11.1355C15.2893 10.6235 14.8294 10.2451 14.3449 10.0029C13.719 9.68989 12.8892 9.51074 12 9.51074C11.1108 9.51074 10.281 9.68989 9.65508 10.0029C9.17065 10.2451 8.71068 10.6235 8.55539 11.1355C8.51999 11.2041 8.5 11.282 8.5 11.3645V16.7617C8.5 17.4673 9.05903 17.9715 9.65508 18.2696C10.281 18.5825 11.1108 18.7617 12 18.7617C12.8892 18.7617 13.719 18.5825 14.3449 18.2696C14.941 17.9715 15.5 17.4673 15.5 16.7617V11.3645ZM10.1023 10.8973C9.61255 11.1422 9.5 11.3879 9.5 11.5107C9.5 11.6335 9.61255 11.8793 10.1023 12.1242C10.5621 12.3541 11.2324 12.5108 12 12.5108C12.7676 12.5108 13.4379 12.3541 13.8977 12.1242C14.3875 11.8793 14.5 11.6335 14.5 11.5107C14.5 11.3879 14.3875 11.1422 13.8977 10.8973C13.4379 10.6674 12.7676 10.5107 12 10.5107C11.2324 10.5107 10.5621 10.6674 10.1023 10.8973ZM14.5 12.9358C14.4488 12.965 14.397 12.9926 14.3449 13.0186C13.719 13.3316 12.8892 13.5108 12 13.5108C11.1108 13.5108 10.281 13.3316 9.65508 13.0186C9.60298 12.9926 9.55118 12.965 9.5 12.9358V14.5621C9.5082 14.5729 9.5246 14.5911 9.55534 14.6167C9.64463 14.6909 9.80381 14.7801 10.0445 14.8647C10.5213 15.0323 11.2127 15.1453 12 15.1453C12.7874 15.1453 13.4787 15.0323 13.9555 14.8647C14.1962 14.7801 14.3554 14.6909 14.4447 14.6167C14.4754 14.5911 14.4918 14.5729 14.5 14.5621V12.9358ZM14.5 15.7262C14.4307 15.7554 14.3596 15.7827 14.2872 15.8081C13.6782 16.0222 12.8695 16.1453 12 16.1453C11.1305 16.1453 10.3218 16.0222 9.71287 15.8081C9.64044 15.7827 9.56929 15.7554 9.5 15.7262V16.7617C9.5 16.8845 9.61255 17.1303 10.1023 17.3751C10.5621 17.6051 11.2324 17.7617 12 17.7617C12.7676 17.7617 13.4379 17.6051 13.8977 17.3751C14.3875 17.1303 14.5 16.8845 14.5 16.7617V15.7262Z" fill="#fff"/>
<path fill-rule="evenodd" clip-rule="evenodd" d="M19.5 8.82843C19.5 8.16539 19.2366 7.5295 18.7678 7.06066L14.9393 3.23223C14.4705 2.76339 13.8346 2.5 13.1716 2.5H7C5.61929 2.5 4.5 3.61929 4.5 5V19C4.5 20.3807 5.61929 21.5 7 21.5H17C18.3807 21.5 19.5 20.3807 19.5 19V8.82843ZM7 3.5C6.17157 3.5 5.5 4.17157 5.5 5V19C5.5 19.8284 6.17157 20.5 7 20.5H17C17.8284 20.5 18.5 19.8284 18.5 19V9C18.5 8.72386 18.2761 8.5 18 8.5H15C14.1716 8.5 13.5 7.82843 13.5 7V4C13.5 3.72386 13.2761 3.5 13 3.5H7ZM14.5 4.20711V7C14.5 7.27614 14.7239 7.5 15 7.5H17.7929L14.5 4.20711Z" fill="#fff"/>
</svg>
